packages/katcn/src/icons/svg/unsecure-solid.svg

<svg width="24" height="25" viewBox="0 0 24 25" fill="none" xmlns="http://www.w3.org/2000/svg">
<path d="M20 5.27601L13.8 2.37601C12.7 1.87601 11.3 1.87601 10.2 2.37601L4 5.27601C2.6 5.97601 1.8 7.57601 2 9.17601C2.5 12.476 4.1 18.676 9.8 23.276C10.5 23.776 11.3 23.976 12 23.976C12.7 23.976 13.5 23.676 14.1 23.176C19.8 18.576 21.5 12.376 21.9 9.07601C22.2 7.57601 21.4 5.97601 20 5.27601Z" fill="black"/>
<path d="M14.7 9.27601C14.3 8.87601 13.7 8.87601 13.3 9.27601L12 10.576L10.7 9.27601C10.3 8.87601 9.7 8.87601 9.3 9.27601C8.9 9.67601 8.9 10.276 9.3 10.676L10.6 11.976L9.3 13.276C8.9 13.676 8.9 14.276 9.3 14.676C9.5 14.876 9.7 14.976 10 14.976C10.3 14.976 10.5 14.876 10.7 14.676L12 13.376L13.3 14.676C13.5 14.876 13.8 14.976 14 14.976C14.2 14.976 14.5 14.876 14.7 14.676C15.1 14.276 15.1 13.676 14.7 13.276L13.4 11.976L14.7 10.676C15.1 10.276 15.1 9.67601 14.7 9.27601Z" fill="white"/>
</svg>

<svg xmlns="http://www.w3.org/2000/svg" fill="none" viewBox="0 0 24 25"><path fill="#000" d="m20 5.276-6.2-2.9c-1.1-.5-2.5-.5-3.6 0L4 5.276c-1.4.7-2.2 2.3-2 3.9.5 3.3 2.1 9.5 7.8 14.1.7.5 1.5.7 2.2.7s1.5-.3 2.1-.8c5.7-4.6 7.4-10.8 7.8-14.1.3-1.5-.5-3.1-1.9-3.8"/><path fill="#fff" d="M14.7 9.276c-.4-.4-1-.4-1.4 0l-1.3 1.3-1.3-1.3c-.4-.4-1-.4-1.4 0s-.4 1 0 1.4l1.3 1.3-1.3 1.3c-.4.4-.4 1 0 1.4.2.2.4.3.7.3s.5-.1.7-.3l1.3-1.3 1.3 1.3c.2.2.5.3.7.3s.5-.1.7-.3c.4-.4.4-1 0-1.4l-1.3-1.3 1.3-1.3c.4-.4.4-1 0-1.4"/></svg>
